src/assets/filled/BoxRemove.svg

<svg width="24" height="24" viewBox="0 0 24 24"  xmlns="http://www.w3.org/2000/svg">
<path d="M17.6 5.30979L11.95 2.26979C11.35 1.94979 10.64 1.94979 10.04 2.26979L4.39998 5.30979C3.98998 5.53979 3.72998 5.97978 3.72998 6.45978C3.72998 6.94979 3.97998 7.38979 4.39998 7.60979L10.05 10.6498C10.35 10.8098 10.68 10.8898 11 10.8898C11.32 10.8898 11.66 10.8098 11.95 10.6498L17.6 7.60979C18.01 7.38979 18.27 6.94979 18.27 6.45978C18.27 5.97978 18.01 5.53979 17.6 5.30979Z" />
<path d="M9.12 11.7096L3.87 9.0896C3.46 8.8796 3 8.9096 2.61 9.1396C2.23 9.3796 2 9.7896 2 10.2396V15.1996C2 16.0596 2.48 16.8296 3.25 17.2196L8.5 19.8396C8.68 19.9296 8.88 19.9796 9.08 19.9796C9.31 19.9796 9.55 19.9096 9.76 19.7896C10.14 19.5496 10.37 19.1396 10.37 18.6896V13.7296C10.36 12.8696 9.88 12.0996 9.12 11.7096Z" />
<path d="M19.9999 10.2396V12.6996C19.5199 12.5596 19.0099 12.4996 18.4999 12.4996C17.1399 12.4996 15.8099 12.9696 14.7599 13.8096C13.3199 14.9396 12.4999 16.6496 12.4999 18.4996C12.4999 18.9896 12.5599 19.4796 12.6899 19.9496C12.5399 19.9296 12.3899 19.8696 12.2499 19.7796C11.8699 19.5496 11.6399 19.1396 11.6399 18.6896V13.7296C11.6399 12.8696 12.1199 12.0996 12.8799 11.7096L18.1299 9.0896C18.5399 8.8796 18.9999 8.9096 19.3899 9.1396C19.7699 9.3796 19.9999 9.7896 19.9999 10.2396Z" />
<path d="M21.6799 15.3202C20.7899 14.4302 19.6099 13.9802 18.4399 14.0002C17.3099 14.0102 16.1799 14.4602 15.3199 15.3202C14.7199 15.9102 14.3299 16.6502 14.1399 17.4202C14.0299 17.8402 13.9899 18.2702 14.0199 18.7002V18.7502C14.0199 18.8202 14.0299 18.8801 14.0399 18.9601C14.0399 18.9601 14.0399 18.9601 14.0499 18.9701V19.0002C14.1399 19.9802 14.5599 20.9302 15.3199 21.6802C16.4799 22.8402 18.1099 23.2302 19.5799 22.8602C20.0199 22.7502 20.4499 22.5702 20.8499 22.3302C21.1499 22.1602 21.4299 21.9402 21.6799 21.6802C22.4299 20.9302 22.8599 19.9802 22.9499 18.9901C22.9599 18.9901 22.9599 18.9701 22.9599 18.9601C22.9799 18.8901 22.9799 18.8102 22.9799 18.7401C22.9799 18.7301 22.9899 18.7102 22.9899 18.6902C23.0499 17.4802 22.6099 16.2401 21.6799 15.3202ZM20.2299 20.2101C19.9399 20.5001 19.4699 20.5001 19.1699 20.2101L18.5099 19.5501L17.8299 20.2301C17.5299 20.5301 17.0599 20.5301 16.7699 20.2301C16.4699 19.9401 16.4699 19.4702 16.7699 19.1702L17.4499 18.4901L16.7899 17.8302C16.4999 17.5302 16.4999 17.0602 16.7899 16.7702C17.0899 16.4702 17.5599 16.4702 17.8599 16.7702L18.5099 17.4302L19.1399 16.7902C19.4399 16.5002 19.9099 16.5002 20.2099 16.7902C20.4999 17.0902 20.4999 17.5602 20.2099 17.8602L19.5699 18.4901L20.2299 19.1401C20.5299 19.4401 20.5299 19.9101 20.2299 20.2101Z" />
</svg>

<?xml version="1.0" encoding="UTF-8"?>
<svg width="24" height="24" viewBox="0 0 24 24" xmlns="http://www.w3.org/2000/svg">
 <path d="m17.6 5.3098-5.65-3.04c-0.6-0.32-1.31-0.32-1.91 0l-5.64 3.04c-0.41 0.23-0.67 0.66999-0.67 1.15 0 0.49001 0.25 0.93001 0.67 1.15l5.65 3.04c0.3 0.16 0.63 0.24 0.95 0.24s0.66-0.08 0.95-0.24l5.65-3.04c0.41-0.22 0.67-0.66 0.67-1.15 0-0.48-0.26-0.91999-0.67-1.15z"/>
 <path d="m9.12 11.71-5.25-2.62c-0.41-0.21-0.87-0.18-1.26 0.05-0.38 0.24-0.61 0.65-0.61 1.1v4.96c0 0.86 0.48 1.63 1.25 2.02l5.25 2.62c0.18 0.09 0.38 0.14 0.58 0.14 0.23 0 0.47-0.07 0.68-0.19 0.38-0.24 0.61-0.65 0.61-1.1v-4.96c-0.01-0.86-0.49-1.63-1.25-2.02z"/>
 <path d="m20 10.24v2.46c-0.48-0.14-0.99-0.2-1.5-0.2-1.36 0-2.69 0.47-3.74 1.31-1.44 1.13-2.26 2.84-2.26 4.69 0 0.49 0.06 0.98 0.19 1.45-0.15-0.02-0.3-0.08-0.44-0.17-0.38-0.23-0.61-0.64-0.61-1.09v-4.96c0-0.86 0.48-1.63 1.24-2.02l5.25-2.62c0.41-0.21 0.87-0.18 1.26 0.05 0.38 0.24 0.61 0.65 0.61 1.1z"/>
 <path d="m21.68 15.32c-0.89-0.89-2.07-1.34-3.24-1.32-1.13 0.01-2.26 0.46-3.12 1.32-0.6 0.59-0.99 1.33-1.18 2.1-0.11 0.42-0.15 0.85-0.12 1.28v0.05c0 0.07 0.01 0.1299 0.02 0.2099l0.01 0.01v0.0301c0.09 0.98 0.51 1.93 1.27 2.68 1.16 1.16 2.79 1.55 4.26 1.18 0.44-0.11 0.87-0.29 1.27-0.53 0.3-0.17 0.58-0.39 0.83-0.65 0.75-0.75 1.18-1.7 1.27-2.6901 0.01 0 0.01-0.02 0.01-0.03 0.02-0.07 0.02-0.1499 0.02-0.22 0-0.01 0.01-0.0299 0.01-0.0499 0.06-1.21-0.38-2.4501-1.31-3.37zm-1.45 4.8899c-0.29 0.29-0.76 0.29-1.06 0l-0.66-0.66-0.68 0.68c-0.3 0.3-0.77 0.3-1.06 0-0.3-0.29-0.3-0.7599 0-1.0599l0.68-0.6801-0.66-0.6599c-0.29-0.3-0.29-0.77 0-1.06 0.3-0.3 0.77-0.3 1.07 0l0.65 0.66 0.63-0.64c0.3-0.29 0.77-0.29 1.07 0 0.29 0.3 0.29 0.77 0 1.07l-0.64 0.6299 0.66 0.65c0.3 0.3 0.3 0.77 0 1.07z"/>
</svg>
